build/assets/img/svg/brush.svg

<svg width="69" height="69" viewBox="0 0 69 69" fill="none" xmlns="http://www.w3.org/2000/svg">
<path d="M37.5456 0.115592C29.5569 -0.3411 21.6529 4.14631 14.2231 13.5305C13.8811 13.9672 13.8342 14.5808 14.1884 14.9936L23.1858 28.4887C23.5282 29.055 24.3661 29.1962 24.9323 28.8538C25.4986 28.5113 25.6398 27.6735 25.2973 27.1072L16.6307 14.3318C23.5064 6.13967 30.443 2.19548 37.4404 2.49921C41.9717 2.76862 45.9728 4.92624 49.1008 7.40284L44.3849 16.6088C44.0312 17.1989 44.3619 17.9186 44.952 18.2723C45.4713 18.5435 46.0259 18.3544 46.3561 18.0711C46.4387 18.0003 46.5213 17.9294 46.533 17.776L50.9777 9.08939C53.2797 11.2714 54.8971 13.3238 55.6646 14.3855L42.9631 30.1556C41.8419 29.6841 40.5555 29.3543 39.2458 29.3313L32.3074 29.2635C32.3074 29.2635 32.2248 29.3344 32.154 29.2518L24.535 10.8474C24.2752 10.2103 23.6024 9.92738 22.9654 10.1873C22.2457 10.518 22.0336 11.2733 22.2935 11.9103L29.7235 29.7603C28.1425 30.2565 26.774 31.0005 25.5238 32.2165C23.6838 34.0816 22.6465 36.5483 22.6005 39.1679L22.5453 47.9588C22.4993 50.5784 23.4679 53.0441 25.3331 54.8841C25.6873 55.2969 26.1241 55.6389 26.5608 55.9809C25.0389 56.7132 24.2489 57.9643 24.2498 59.9703C24.2507 61.9763 24.9594 63.8049 26.3879 65.3029C27.7455 66.7183 29.6102 67.5552 31.6162 67.5544L39.6401 67.5508C41.6461 67.55 43.4865 66.6878 44.8193 65.401C46.2347 64.0434 47.0717 62.1786 46.9999 60.0901C46.976 59.3939 46.4802 58.816 45.784 58.8399C45.0878 58.8638 44.5099 59.3596 44.5338 60.0558C44.476 62.8288 42.3766 65.0599 39.6036 65.0021L31.5797 65.0056C30.2699 64.9826 28.9953 64.4993 28.1453 63.5085C27.2127 62.5886 26.6929 61.3144 26.716 60.0046C26.7507 58.5414 27.2344 58.2698 27.7181 57.9982C28.5911 57.6792 29.9835 57.6314 31.4467 57.6662L39.7774 57.6861C39.7774 57.6861 39.9308 57.6978 40.0133 57.627C42.267 57.4136 44.426 56.4215 46.0891 54.8514C47.929 52.9862 48.9663 50.5196 49.0124 47.9L48.9024 39.2507C48.9484 36.6311 47.9798 34.1654 46.1146 32.3254C45.8312 31.9952 45.4653 31.7357 45.0994 31.4763L58.0721 15.1868C58.4141 14.7501 58.3785 14.2073 58.1777 13.8062C57.8353 13.2399 49.9121 0.829963 37.5456 0.115592ZM46.4362 39.2164L46.3811 48.0073C46.3819 50.0133 45.545 51.878 44.2004 53.3182C42.785 54.6758 41.0272 55.4672 39.1038 55.3972L32.1654 55.3295C30.242 55.2595 28.4481 54.5051 27.008 53.1606C25.6503 51.7452 24.9416 49.9165 24.9407 47.9105L24.9958 39.1196C24.9949 37.1136 25.8319 35.2489 27.1765 33.8087C28.5919 32.4511 30.3497 31.6598 32.2731 31.7297L39.2114 31.7975C41.1348 31.8674 42.9287 32.6218 44.3689 33.9664C45.7265 35.3818 46.4353 37.2104 46.4362 39.2164Z" fill="#444444"/>
</svg>

<svg width="69" height="69" fill="none" xmlns="http://www.w3.org/2000/svg"><path d="M37.546.116c-7.99-.457-15.893 4.03-23.323 13.415-.342.436-.389 1.05-.035 1.463l8.998 13.495c.342.566 1.18.707 1.746.365.567-.343.708-1.18.365-1.747l-8.666-12.775C23.506 6.14 30.443 2.195 37.44 2.499c4.53.27 8.532 2.427 11.66 4.904l-4.716 9.206c-.354.59-.023 1.31.567 1.663.52.272 1.074.082 1.404-.2.083-.072.165-.143.177-.296l4.445-8.687c2.302 2.182 3.92 4.235 4.687 5.296l-12.702 15.77c-1.121-.47-2.407-.8-3.717-.824l-6.939-.067s-.082.07-.153-.012l-7.619-18.405a1.176 1.176 0 00-1.57-.66c-.72.331-.931 1.086-.671 1.723l7.43 17.85c-1.582.496-2.95 1.24-4.2 2.457a10.105 10.105 0 00-2.924 6.95l-.055 8.792c-.046 2.62.923 5.085 2.788 6.925.354.413.791.755 1.228 1.097-1.522.732-2.312 1.983-2.311 3.99 0 2.005.71 3.834 2.138 5.332 1.357 1.415 3.222 2.252 5.228 2.251l8.024-.003c2.006-.001 3.846-.863 5.18-2.15 1.415-1.358 2.252-3.222 2.18-5.31-.024-.697-.52-1.275-1.216-1.251-.696.024-1.274.52-1.25 1.216-.058 2.773-2.157 5.004-4.93 4.946l-8.024.004c-1.31-.023-2.585-.507-3.435-1.498a4.818 4.818 0 01-1.429-3.503c.035-1.464.518-1.735 1.002-2.007.873-.319 2.265-.367 3.729-.332l8.33.02s.154.012.236-.059c2.254-.213 4.413-1.206 6.076-2.776a10.106 10.106 0 002.923-6.951l-.11-8.65c.046-2.619-.922-5.085-2.787-6.925-.284-.33-.65-.59-1.016-.849l12.973-16.29c.342-.436.306-.979.106-1.38C57.835 13.24 49.912.83 37.546.116zm8.89 39.1l-.055 8.791c0 2.006-.836 3.871-2.18 5.311-1.416 1.358-3.174 2.15-5.097 2.08l-6.939-.069c-1.923-.07-3.717-.824-5.157-2.168-1.358-1.416-2.066-3.245-2.067-5.25l.055-8.791c-.001-2.006.836-3.871 2.18-5.311 1.416-1.358 3.174-2.15 5.097-2.08l6.938.069c1.924.07 3.718.824 5.158 2.168 1.358 1.416 2.066 3.244 2.067 5.25z" fill="#444"/></svg>
